X:1
T:Title
%%score ( 1 2 ) { 3 | 4 }
L:1/8
M:6/4
K:A
V:1 treble nm="Grand Piano, Unnamed-000"
V:2 treble 
V:3 bass nm="Choir Pad, Breslau"
V:4 bass 
V:1
 [CA]2 [EA]2 [CA]2 [DF]4 [EA]2 | [FB]4 [^EG]2 F6 | [B,F]2 [B,G]2 [EA]2 [^DB]4 [CE]2 | %3
w: By~As~Hymnodus~Sacer,~1625 * * * *|||
 [EG]4 [^DF]2 E6 | [CE]2 [CA]2 [EB]2 [Ec]4 [FA]2 | .d6 z6 | z6 .B6 | z4 G2 z6 | z12 |] %9
w: ||||||
V:2
 x12 | x12 | x12 | x12 | x12 | F2 E2 [Ec]2 [EB]6 | [Ec]2 [Ec]2 [Ec]2 E2 D2 [CA]2 | %7
 [FA]4 ED [CA]6- | [CA]6 z6 |] %9
V:3
 E,2 A,2 A,2 A,4 C2 | D4 C2 A,6 | F,2 E,2 E,2 F,3 G, A,2 | B,4 A,2 G,6 | A,2 A,2 G,2 A,4 A,2 | %5
 A,2 G,2 A,2 G,6 | A,2 A,2 A,2 G,4 A,2 | B,4 B,2 A,6- | A,6 z6 |] %9
V:4
 A,,2 C,2 A,,2 D,4 C,2 | B,,4 C,2 F,6 | .^D,4 C,2 B,,4 C,2 | B,,4 B,,2 E,6 | z2 F,2 E,2 A,,4 D,2 | %5
 B,,4 A,,2 E,6 | A,,2 C,2 A,,2 E,4 F,2 | D,4 E,2 A,,6- | A,,6 z6 |] %9

